packages/dnb-eufemia/assets/icons/upload_medium.svg

<svg width="24" height="24" viewBox="0 0 24 24" fill="none" xmlns="http://www.w3.org/2000/svg">
<path d="M7.21967 11.2197C6.92678 11.5126 6.92678 11.9874 7.21967 12.2803C7.51256 12.5732 7.98744 12.5732 8.28033 12.2803L7.21967 11.2197ZM12 7.5L12.5303 6.96967C12.2374 6.67678 11.7626 6.67678 11.4697 6.96967L12 7.5ZM15.7197 12.2803C16.0126 12.5732 16.4874 12.5732 16.7803 12.2803C17.0732 11.9874 17.0732 11.5126 16.7803 11.2197L15.7197 12.2803ZM11.25 21C11.25 21.4142 11.5858 21.75 12 21.75C12.4142 21.75 12.75 21.4142 12.75 21H11.25ZM4 2C3.58579 2 3.25 2.33579 3.25 2.75C3.25 3.16421 3.58579 3.5 4 3.5V2ZM20 3.5C20.4142 3.5 20.75 3.16421 20.75 2.75C20.75 2.33579 20.4142 2 20 2V3.5ZM8.28033 12.2803L12.5303 8.03033L11.4697 6.96967L7.21967 11.2197L8.28033 12.2803ZM11.4697 8.03033L15.7197 12.2803L16.7803 11.2197L12.5303 6.96967L11.4697 8.03033ZM12.75 21V7.5H11.25V21H12.75ZM4 3.5H20V2H4V3.5Z" fill="black"/>
</svg>

<svg width="24" height="24" viewBox="0 0 24 24" fill="none" xmlns="http://www.w3.org/2000/svg"><path d="M7.22 11.22a.75.75 0 1 0 1.06 1.06l-1.06-1.06ZM12 7.5l.53-.53a.75.75 0 0 0-1.06 0l.53.53Zm3.72 4.78a.75.75 0 1 0 1.06-1.06l-1.06 1.06ZM11.25 21a.75.75 0 0 0 1.5 0h-1.5ZM4 2a.75.75 0 0 0 0 1.5V2Zm16 1.5A.75.75 0 0 0 20 2v1.5ZM8.28 12.28l4.25-4.25-1.06-1.06-4.25 4.25 1.06 1.06Zm3.19-4.25 4.25 4.25 1.06-1.06-4.25-4.25-1.06 1.06ZM12.75 21V7.5h-1.5V21h1.5ZM4 3.5h16V2H4v1.5Z" fill="#000"/></svg>
